!!!!SEGMENT: pl-cz--ii-87--001-008_zientarski-romuald-teodor--msza-swieta-sanctus.krn
!!!cenid: 18xx:1169
!!!COM: Zientarski, Romuald Teodor
!!!COM-rismid: pe30001080
!!!CDT: ~1830-1874
!!!CNT: Polish
!!!OPR: Msza Święta
!!!OTL: Sanctus
!!!OMV: 008
!!!PDT: 1888
!!!AGN: Sacred; Mass
!!!SMS-siglum: PL-CZ
!!!SMS-shelfmark: II-87
!!!SMS-shelfwork: 001-008 M
!!!SMS-variant:
!!!SMS-altvar:
!!!NIFC-rismid: 300033224
!!!URL-scan: http://repozytorium.nifc.pl/skany/pl-cz-nut--ii-87
!!!ONB-nifc: UWAGA: części Mszy: Kyrie, Gloria, Graduale, Credo, Et incarnatus, Et resurrexit, Offertorium, Sanctus, Benedictus, Agnus Dei, Benedictio
!!!OMD: Andantino.
!!!key: B-
**kern	**kern	**dynam	**kern	**text	**dynam
*part2	*part2	*part2	*part1	*part1	*part1
*staff3	*staff2	*	*staff1	*staff1	*
*I"[Organo]	*	*	*I"[Voice]	*	*
*Iorgan	*	*	*Ivox	*	*
*ICklav	*	*	*ICvox	*	*
*IGacmp	*	*	*IGsolo	*	*
*clefF4	*clefG2	*	*clefG2	*	*
*k[b-e-]	*k[b-e-]	*	*k[e-b-]	*	*
*B-:	*B-:	*	*B-:	*	*
*M4/4	*M4/4	*	*M4/4	*	*
*met(c)	*met(c)	*	*met(c)	*	*
=1	=1	=1	=1	=1	=1
*^	*	*	*	*	*
!	!	!	!LO:DY:rj	!	!	!LO:HP:a
2.d 2.B- 2.F/	2.BB-\	1r	p	(>8b-\L	Swię-	<
.	.	.	.	8cc\J	.	.
.	.	.	.	2dd\)	.	[
!	!	!	!	!	!	!LO:HP:a
.	.	.	.	.	.	>
4c 4A 4F/	4FF\	.	.	4cc\	-ty	]]
*v	*v	*	*	*	*	*
=2	=2	=2	=2	=2	=2
*	*^	*	*	*	*
!	!	!	!	!	!	!LO:HP:a
4r	4r	2.ryy	.	16b-\LL	Swię-	<
.	.	.	.	16cc\	.	.
.	.	.	.	16dd\	.	.
.	.	.	.	16ee-\JJ	.	[
!	!	!	!	!	!	!LO:HP:a
2BB-\	2d 2B- 2F</	.	.	2ff\	-ty	>
8r	8r	8ryy	.	(>8dd\	Swię-	]
8Bn\	(>8ff/	[>8g\	.	8r	.	.
=3	=3	=3	=3	=3	=3	=3
(>4c^\	4ee-/)	4g\]	.	4ee-/)	.	.
4A\)	8cc/L	2f\	.	(>8cc\L	-ty	.
.	8ee-/J	.	.	8ee-\J)	.	.
4B-^\	4dd/	.	.	4dd^\	Bo-	.
4G\	8b-/L	4g\	.	(>8b-\L	-że	.
.	8dd/J	.	.	8dd\J)	.	.
=4	=4	=4	=4	=4	=4	=4
1c 1C	4.cc/	1b- 1g	.	4.cc^\	ktoż	.
.	8ff/	.	.	8ff\	po-	.
.	4een\	.	.	4een\	-do-	.
.	8dd/L	.	.	8dd\	-ła	.
.	8cc/J	.	.	8cc\	cię	.
=5	=5	=5	=5	=5	=5	=5
*^	*	*	*	*	*	*
2c/	2F\	(>2cc/	[<2a\	.	2cc^\	zmie-	.
8c/	8F\	8ff/)	8a\]	.	4ff\	-rzyc.	.
8r	8ryy	8r	8ryy	.	.	.	.
4r	4ryy	4r	4ryy	.	4r	.	.
*v	*v	*	*	*	*	*	*
*	*v	*v	*	*	*	*
=6||	=6||	=6||	=6||	=6||	=6||
1D-X 1DD-X;<	1f 1d-X 1A-X;	.	1r;	.	.
!!LO:LB:g=original
=7	=7	=7	=7	=7	=7
!!!OMD: Adagio.
!!!key: D-
*k[b-e-a-d-g-]	*k[b-e-a-d-g-]	*	*k[b-e-a-d-g-]	*	*
2.D-\	2.ff 2.a-\	.	2.ff\	Czło-	.
4D-\	4ee- 4g-/	.	4ee-\	-wiek	.
=8	=8	=8	=8	=8	=8
2D-\	2dd- 2f/	.	2dd-\	tyl-	.
4D-\	4a- 4f\	.	4a-/	-ko	.
4r	4r	.	4r	.	.
=9	=9	=9	=9	=9	=9
(>2E-\	(>2dd- 2g-^\	.	(>2dd-^\	klę-	.
4.AA-/	4.cc 4.g-\	.	4.cc\	.	.
!LO:N:vis=4	!	!	!	!	!
8C/)	8b- 8g-\)	.	8b-\)	-knąć	.
=10	=10	=10	=10	=10	=10
2D-\	2b- 2g-\	.	2b-\	mo-	.
4D-\	4a- 4f\	.	4a-/	-że	.
4r	4r	.	4r	.	.
=11	=11	=11	=11	=11	=11
2D-^\	2a- 2f^>/	.	2a-^>/	I	.
2D-\	2dd- 2gn^>/	.	2dd-^\	w_proch	.
=12	=12	=12	=12	=12	=12
2AA-/	2dd- 2g-X/	.	2dd-\	czo-	.
4AA-/	4cc 4g-/	.	4cc\	-łem	.
4AA-/	8bnL 8g-\	.	(>8bn\L	u-	.
.	8cc\J	.	8cc\J)	.	.
=13	=13	=13	=13	=13	=13
2.A-\	2.ff 2.a-\	.	(>2.ff^\	-de-	.
4AA-/	4ee- 4g-/	.	4ee-\)	.	.
=14	=14	=14	=14	=14	=14
2D-\	2dd- 2f\	.	2dd-\	-rzyc	.
2r	2r	.	2r	.	.
==	==	==	==	==	==
*-	*-	*-	*-	*-	*-
!!!system-decoration: <s1>(s2,s3)
!!!RDF**kern: > = above
!!!RDF**kern: < = below
!!!ENC: Tomasz Grochalski
!!!END: 2020-11-07
!!!ENC: Andrzej Kubiczek
!!!END: 2021-11-14
